X: 4268
T: BREAK DOWN
R: Hornpipe.
%R: hornpipe, reel
B: James Kerr "Merry Melodies" v.4 p.29 #268
Z: 2016 John Chambers <jc:trillian.mit.edu>
M: C|
L: 1/8
K: A
(3(efg) |\
   a2A2 AcBA | E2A2 AcBA |\
[1 F2B2 BcBA | GABc defg :|\
[2 GABc defg | aece A2 |]
|: (3(BAG) |\
   A2a2 A3B | B2b2 B3A |\
[1 GABc defg | aefd cABG :|\
[2 GABc defg | a2({b}ag)a2 |]

%%sep 1 1 500
%%sep 1 1 500

